build/system/UserRoleFromSolid.svg

<svg xmlns="http://www.w3.org/2000/svg" fill="none" viewBox="0 0 24 24" focusable="false"><path d="M0 0H24V24H0z"/><path fill="#74767B" fill-rule="evenodd" d="M12 3C9.33497 3 7.26365 5.32002 7.56456 7.96802L7.8266 10.274C8.06781 12.3966 9.86377 14 12 14C14.1363 14 15.9322 12.3966 16.1734 10.274L16.4355 7.96803C16.7364 5.32002 14.6651 3 12 3ZM13 17.5C13 15.0147 15.0147 13 17.5 13C19.9853 13 22 15.0147 22 17.5C22 19.9853 19.9853 22 17.5 22C15.0147 22 13 19.9853 13 17.5ZM17.1563 14.856C17.2863 14.716 17.4563 14.646 17.6363 14.646C17.7963 14.646 17.9463 14.696 18.0763 14.816L20.424 17.0534C20.734 17.3334 20.734 17.8134 20.424 18.0934L18.0763 20.3207C17.8063 20.5607 17.3963 20.5407 17.1563 20.2807C16.9163 20.0107 16.9263 19.6007 17.1963 19.3607L18.3846 18.2234L15.0132 18.2234C14.6542 18.2234 14.3632 17.9323 14.3632 17.5734C14.3632 17.2144 14.6542 16.9234 15.0132 16.9234L18.3916 16.9234L17.1963 15.776C16.9363 15.536 16.9163 15.126 17.1563 14.856ZM11.1541 15C11.6692 15 12.0139 15.5434 11.8848 16.042C11.7642 16.5078 11.7 16.9964 11.7 17.5C11.7 18.3115 11.8667 19.0841 12.1677 19.7854C12.3958 20.317 12.0443 21 11.4658 21L4.87265 21C4.42482 21 4.09217 20.5853 4.18932 20.1481L4.28926 19.6984C4.89931 16.9532 7.33419 15 10.1464 15L11.1541 15Z"/></svg>

<svg xmlns="http://www.w3.org/2000/svg" fill="none" viewBox="0 0 24 24" focusable="false"><path fill="#74767B" fill-rule="evenodd" d="M7.56 7.96C7.26 5.32 9.33 3 12 3a4.46 4.46 0 0 1 4.43 4.96l-.26 2.31A4.206 4.206 0 0 1 12 14c-2.14 0-3.94-1.61-4.18-3.73zM13 17.5a4.5 4.5 0 0 1 9 0c0 2.48-2.02 4.5-4.5 4.5a4.5 4.5 0 0 1-4.5-4.5m4.15-2.65c.13-.14.3-.21.48-.21.16 0 .31.05.44.17l2.35 2.24c.31.28.31.76 0 1.04l-2.35 2.23c-.27.24-.68.22-.92-.04a.65.65 0 0 1 .04-.92l1.19-1.14h-3.37c-.36 0-.65-.29-.65-.65s.29-.65.65-.65h3.38l-1.2-1.15a.66.66 0 0 1-.04-.92m-6 .15c.51 0 .86.54.73 1.04-.12.46-.18.95-.18 1.46 0 .81.16 1.58.46 2.28.23.53-.12 1.22-.7 1.22H4.87c-.45 0-.78-.42-.69-.86l.1-.45A6 6 0 0 1 10.14 15z"/></svg>
